svg/color/bns.svg

<?xml version="1.0" encoding="UTF-8" ?>
<!DOCTYPE svg PUBLIC "-//W3C//DTD SVG 1.1//EN" "http://www.w3.org/Graphics/SVG/1.1/DTD/svg11.dtd">
<svg width="250pt" height="250pt" viewBox="0 0 250 250" version="1.1" xmlns="http://www.w3.org/2000/svg">
<g id="#ffffffff">
<path fill="#ffffff" opacity="1.00" d=" M 0.00 0.00 L 116.55 0.00 C 115.41 0.18 114.28 0.38 113.16 0.59 C 82.78 3.10 53.79 17.81 33.20 40.20 C 13.47 61.49 1.35 89.91 0.41 118.98 C 0.30 119.43 0.10 120.31 0.00 120.76 L 0.00 0.00 Z" />
<path fill="#ffffff" opacity="1.00" d=" M 133.44 0.00 L 250.00 0.00 L 250.00 107.60 L 249.50 107.10 C 247.50 96.30 244.95 85.52 240.43 75.46 C 228.92 48.72 207.80 26.21 181.71 13.26 C 167.50 6.08 151.88 1.38 135.95 0.50 C 135.32 0.38 134.07 0.13 133.44 0.00 Z" />
<path fill="#ffffff" opacity="1.00" d=" M 0.00 137.36 L 0.42 137.86 C 1.93 146.12 3.17 154.46 5.80 162.46 C 11.20 179.80 20.47 195.90 32.72 209.29 C 53.34 231.96 82.48 246.80 113.06 249.44 C 113.69 249.58 114.96 249.86 115.60 250.00 L 0.00 250.00 L 0.00 137.36 Z" />
<path fill="#ffffff" opacity="1.00" d=" M 249.70 142.31 L 250.00 141.18 L 250.00 250.00 L 135.04 250.00 L 136.00 249.64 C 156.30 248.05 176.11 241.22 193.21 230.20 C 217.73 214.45 236.56 189.94 245.02 162.02 C 247.18 155.60 248.11 148.87 249.70 142.31 Z" />
</g>
<g id="#8e09d4ff">
<path fill="#8e09d4" opacity="1.00" d=" M 116.55 0.00 L 133.44 0.00 C 134.07 0.13 135.32 0.38 135.95 0.50 C 138.42 1.83 141.11 2.69 143.92 2.95 C 157.63 4.79 170.85 9.44 183.03 15.94 C 193.41 22.28 204.05 28.60 212.46 37.53 C 228.09 52.70 239.03 72.36 244.85 93.28 C 246.50 98.75 247.12 104.46 248.52 109.99 C 248.89 110.50 249.63 111.53 250.00 112.04 L 250.00 141.18 L 249.70 142.31 C 249.45 141.72 248.94 140.54 248.68 139.95 C 245.29 155.08 241.61 170.36 234.08 184.05 C 229.26 193.20 222.38 201.00 215.88 208.96 C 212.12 213.53 207.34 217.07 202.85 220.87 C 189.40 232.08 173.36 240.11 156.42 244.50 C 149.69 246.53 142.47 246.73 136.00 249.64 L 135.04 250.00 L 115.60 250.00 C 114.96 249.86 113.69 249.58 113.06 249.44 C 107.05 246.26 100.10 246.45 93.75 244.38 C 86.15 241.86 78.25 239.95 71.26 235.89 C 53.81 227.82 39.00 214.90 26.97 200.05 C 16.81 185.86 8.56 169.98 4.90 152.82 C 3.27 146.56 3.15 140.03 1.56 133.76 C 1.34 132.74 0.82 131.89 0.00 131.23 L 0.00 120.76 C 0.10 120.31 0.30 119.43 0.41 118.98 C 1.83 115.86 2.64 112.50 2.93 109.09 C 4.93 91.04 11.61 73.69 21.35 58.43 C 28.89 45.73 39.62 35.23 51.10 26.08 C 64.52 16.81 79.25 9.10 95.11 5.01 C 101.07 3.27 107.55 3.54 113.16 0.59 C 114.28 0.38 115.41 0.18 116.55 0.00 M 69.50 52.35 C 69.64 95.03 69.39 137.72 69.63 180.40 C 77.57 180.60 85.52 180.45 93.47 180.49 C 94.54 178.89 95.38 177.16 96.14 175.40 C 101.11 178.03 105.97 181.20 111.58 182.26 C 119.53 183.18 127.66 183.58 135.61 182.45 C 156.70 179.56 174.29 160.12 174.57 138.76 C 175.33 129.09 174.33 118.96 169.63 110.32 C 162.38 95.47 146.33 86.01 130.03 85.22 C 125.09 85.22 120.14 85.13 115.22 85.44 C 108.23 85.93 102.14 89.66 96.14 92.90 C 95.93 80.26 95.78 67.62 95.85 54.99 C 96.21 52.73 93.78 51.48 91.88 51.32 C 86.93 50.89 81.96 51.37 77.01 51.11 C 74.48 51.21 71.55 50.43 69.50 52.35 M 67.66 66.01 C 67.71 103.20 67.88 140.40 67.56 177.59 C 67.62 178.60 68.19 179.48 68.58 180.40 C 69.64 174.99 69.24 169.47 69.26 164.00 C 69.26 132.00 69.25 100.00 69.26 68.00 C 69.23 62.86 69.62 57.68 68.70 52.59 C 66.88 56.83 67.85 61.54 67.66 66.01 M 188.37 152.47 C 184.06 153.30 179.65 155.46 177.25 159.28 C 173.77 165.00 174.78 172.89 179.16 177.84 C 185.08 183.67 195.50 183.95 202.09 179.09 C 207.93 175.26 208.33 166.87 206.14 160.87 C 203.36 154.02 195.17 151.59 188.37 152.47 M 69.70 181.50 C 71.05 182.13 72.49 182.59 74.01 182.44 C 79.98 182.17 85.96 182.43 91.93 182.20 L 91.91 181.08 C 84.52 180.81 77.07 180.67 69.70 181.50 Z" />
<path fill="#8e09d4" opacity="1.00" d=" M 120.38 110.48 C 126.21 109.12 132.62 110.28 137.72 113.35 C 150.59 121.27 152.29 141.94 141.05 151.97 C 131.74 161.05 115.29 159.69 106.78 150.18 C 102.84 145.02 101.48 138.31 101.68 131.94 C 102.38 121.81 109.91 111.78 120.38 110.48 Z" />
</g>
<g id="#631e8fff">
<path fill="#631e8f" opacity="1.00" d=" M 33.20 40.20 C 53.79 17.81 82.78 3.10 113.16 0.59 C 107.55 3.54 101.07 3.27 95.11 5.01 C 79.25 9.10 64.52 16.81 51.10 26.08 C 39.62 35.23 28.89 45.73 21.35 58.43 C 11.61 73.69 4.93 91.04 2.93 109.09 C 2.64 112.50 1.83 115.86 0.41 118.98 C 1.35 89.91 13.47 61.49 33.20 40.20 Z" />
<path fill="#631e8f" opacity="1.00" d=" M 135.95 0.50 C 151.88 1.38 167.50 6.08 181.71 13.26 C 207.80 26.21 228.92 48.72 240.43 75.46 C 244.95 85.52 247.50 96.30 249.50 107.10 C 249.26 107.83 248.77 109.27 248.52 109.99 C 247.12 104.46 246.50 98.75 244.85 93.28 C 239.03 72.36 228.09 52.70 212.46 37.53 C 204.05 28.60 193.41 22.28 183.03 15.94 C 170.85 9.44 157.63 4.79 143.92 2.95 C 141.11 2.69 138.42 1.83 135.95 0.50 Z" />
<path fill="#631e8f" opacity="1.00" d=" M 69.50 52.35 C 71.55 50.43 74.48 51.21 77.01 51.11 C 81.96 51.37 86.93 50.89 91.88 51.32 C 93.78 51.48 96.21 52.73 95.85 54.99 C 95.78 67.62 95.93 80.26 96.14 92.90 C 102.14 89.66 108.23 85.93 115.22 85.44 C 120.14 85.13 125.09 85.22 130.03 85.22 C 146.33 86.01 162.38 95.47 169.63 110.32 C 174.33 118.96 175.33 129.09 174.57 138.76 C 174.29 160.12 156.70 179.56 135.61 182.45 C 127.66 183.58 119.53 183.18 111.58 182.26 C 105.97 181.20 101.11 178.03 96.14 175.40 C 95.38 177.16 94.54 178.89 93.47 180.49 C 93.34 177.22 93.30 173.95 93.35 170.68 C 98.69 175.14 104.60 179.19 111.56 180.57 C 123.57 183.06 136.61 182.29 147.74 176.81 C 157.82 172.07 166.03 163.46 169.99 153.02 C 175.39 138.89 174.65 122.18 167.00 109.00 C 160.03 96.71 146.81 88.76 132.97 86.87 C 124.35 85.80 115.32 85.98 107.11 89.11 C 102.40 90.86 98.40 93.98 94.51 97.07 C 94.56 82.23 94.63 67.39 94.48 52.56 C 86.15 52.36 77.82 52.68 69.50 52.35 Z" />
<path fill="#631e8f" opacity="1.00" d=" M 120.44 108.73 C 130.15 107.19 141.28 110.76 146.37 119.62 C 152.48 130.24 151.44 145.59 141.91 153.90 C 134.04 160.58 122.13 161.47 112.98 157.02 C 104.81 153.11 99.86 143.98 100.19 135.03 C 99.62 128.04 101.89 120.88 106.65 115.70 C 110.33 111.97 115.31 109.63 120.44 108.73 M 120.38 110.48 C 109.91 111.78 102.38 121.81 101.68 131.94 C 101.48 138.31 102.84 145.02 106.78 150.18 C 115.29 159.69 131.74 161.05 141.05 151.97 C 152.29 141.94 150.59 121.27 137.72 113.35 C 132.62 110.28 126.21 109.12 120.38 110.48 Z" />
<path fill="#631e8f" opacity="1.00" d=" M 1.56 133.76 C 3.15 140.03 3.27 146.56 4.90 152.82 C 8.56 169.98 16.81 185.86 26.97 200.05 C 39.00 214.90 53.81 227.82 71.26 235.89 C 78.25 239.95 86.15 241.86 93.75 244.38 C 100.10 246.45 107.05 246.26 113.06 249.44 C 82.48 246.80 53.34 231.96 32.72 209.29 C 20.47 195.90 11.20 179.80 5.80 162.46 C 3.17 154.46 1.93 146.12 0.42 137.86 C 1.07 136.57 1.45 135.20 1.56 133.76 Z" />
<path fill="#631e8f" opacity="1.00" d=" M 234.08 184.05 C 241.61 170.36 245.29 155.08 248.68 139.95 C 248.94 140.54 249.45 141.72 249.70 142.31 C 248.11 148.87 247.18 155.60 245.02 162.02 C 236.56 189.94 217.73 214.45 193.21 230.20 C 176.11 241.22 156.30 248.05 136.00 249.64 C 142.47 246.73 149.69 246.53 156.42 244.50 C 173.36 240.11 189.40 232.08 202.85 220.87 C 207.34 217.07 212.12 213.53 215.88 208.96 C 222.38 201.00 229.26 193.20 234.08 184.05 Z" />
</g>
<g id="#72199bff">
<path fill="#72199b" opacity="1.00" d=" M 67.66 66.01 C 67.85 61.54 66.88 56.83 68.70 52.59 C 69.62 57.68 69.23 62.86 69.26 68.00 C 69.25 100.00 69.26 132.00 69.26 164.00 C 69.24 169.47 69.64 174.99 68.58 180.40 C 68.19 179.48 67.62 178.60 67.56 177.59 C 67.88 140.40 67.71 103.20 67.66 66.01 Z" />
</g>
<g id="#fefefeff">
<path fill="#fefefe" opacity="1.00" d=" M 69.50 52.35 C 77.82 52.68 86.15 52.36 94.48 52.56 C 94.63 67.39 94.56 82.23 94.51 97.07 C 98.40 93.98 102.40 90.86 107.11 89.11 C 115.32 85.98 124.35 85.80 132.97 86.87 C 146.81 88.76 160.03 96.71 167.00 109.00 C 174.65 122.18 175.39 138.89 169.99 153.02 C 166.03 163.46 157.82 172.07 147.74 176.81 C 136.61 182.29 123.57 183.06 111.56 180.57 C 104.60 179.19 98.69 175.14 93.35 170.68 C 93.30 173.95 93.34 177.22 93.47 180.49 C 85.52 180.45 77.57 180.60 69.63 180.40 C 69.39 137.72 69.64 95.03 69.50 52.35 M 120.44 108.73 C 115.31 109.63 110.33 111.97 106.65 115.70 C 101.89 120.88 99.62 128.04 100.19 135.03 C 99.86 143.98 104.81 153.11 112.98 157.02 C 122.13 161.47 134.04 160.58 141.91 153.90 C 151.44 145.59 152.48 130.24 146.37 119.62 C 141.28 110.76 130.15 107.19 120.44 108.73 Z" />
</g>
<g id="#b95aedff">
<path fill="#b95aed" opacity="1.00" d=" M 249.50 107.10 L 250.00 107.60 L 250.00 112.04 C 249.63 111.53 248.89 110.50 248.52 109.99 C 248.77 109.27 249.26 107.83 249.50 107.10 Z" />
</g>
<g id="#ca6af2ff">
<path fill="#ca6af2" opacity="1.00" d=" M 0.00 131.23 C 0.82 131.89 1.34 132.74 1.56 133.76 C 1.45 135.20 1.07 136.57 0.42 137.86 L 0.00 137.36 L 0.00 131.23 Z" />
</g>
<g id="#9d1a83ff">
<path fill="#9d1a83" opacity="1.00" d=" M 188.37 152.47 C 195.17 151.59 203.36 154.02 206.14 160.87 C 208.33 166.87 207.93 175.26 202.09 179.09 C 195.50 183.95 185.08 183.67 179.16 177.84 C 174.78 172.89 173.77 165.00 177.25 159.28 C 179.65 155.46 184.06 153.30 188.37 152.47 M 187.32 154.39 C 183.24 155.15 179.47 157.83 177.75 161.66 C 175.79 166.14 176.39 171.72 179.47 175.56 C 184.70 181.84 195.12 182.51 201.33 177.35 C 207.42 172.42 207.28 161.72 200.91 157.09 C 197.18 153.95 191.95 153.54 187.32 154.39 Z" />
</g>
<g id="#ec7263ff">
<path fill="#ec7263" opacity="1.00" d=" M 187.32 154.39 C 191.95 153.54 197.18 153.95 200.91 157.09 C 207.28 161.72 207.42 172.42 201.33 177.35 C 195.12 182.51 184.70 181.84 179.47 175.56 C 176.39 171.72 175.79 166.14 177.75 161.66 C 179.47 157.83 183.24 155.15 187.32 154.39 M 186.37 156.38 C 180.24 157.99 176.75 165.16 178.97 171.02 C 180.77 177.61 188.78 179.87 194.82 178.65 C 201.70 177.63 206.10 169.16 203.04 162.94 C 200.63 156.54 192.42 154.23 186.37 156.38 Z" />
</g>
<g id="#fe8405ff">
<path fill="#fe8405" opacity="1.00" d=" M 186.37 156.38 C 192.42 154.23 200.63 156.54 203.04 162.94 C 206.10 169.16 201.70 177.63 194.82 178.65 C 188.78 179.87 180.77 177.61 178.97 171.02 C 176.75 165.16 180.24 157.99 186.37 156.38 Z" />
</g>
<g id="#7217a4ff">
<path fill="#7217a4" opacity="1.00" d=" M 69.70 181.50 C 77.07 180.67 84.52 180.81 91.91 181.08 L 91.93 182.20 C 85.96 182.43 79.98 182.17 74.01 182.44 C 72.49 182.59 71.05 182.13 69.70 181.50 Z" />
</g>
</svg>

<?xml version="1.0" encoding="utf-8"?>
<!-- Generator: Adobe Illustrator 26.0.3, SVG Export Plug-In . SVG Version: 6.00 Build 0)  -->
<svg version="1.1" id="Layer_1" xmlns="http://www.w3.org/2000/svg" xmlns:xlink="http://www.w3.org/1999/xlink" x="0px" y="0px"
	 viewBox="0 0 250 250" style="enable-background:new 0 0 250 250;" xml:space="preserve">
<style type="text/css">
	.st0{fill:#8E09D4;}
	.st1{fill:#631E8F;}
	.st2{fill:#72199B;}
	.st3{fill:#FEFEFE;}
	.st4{fill:#B95AED;}
	.st5{fill:#CA6AF2;}
	.st6{fill:#9D1A83;}
	.st7{fill:#EC7263;}
	.st8{fill:#FE8405;}
	.st9{fill:#7217A4;}
</style>
<g id="_x23_8e09d4ff">
	<path class="st0" d="M116.6,0h16.9c0.6,0.1,1.9,0.4,2.5,0.5c2.5,1.3,5.2,2.2,8,2.5c13.7,1.8,26.9,6.5,39.1,13
		c10.4,6.3,21,12.7,29.4,21.6c15.6,15.2,26.6,34.8,32.4,55.8c1.6,5.5,2.3,11.2,3.7,16.7c0.4,0.5,1.1,1.5,1.5,2.1v29.1l-0.3,1.1
		c-0.2-0.6-0.8-1.8-1-2.4c-3.4,15.1-7.1,30.4-14.6,44.1c-4.8,9.1-11.7,16.9-18.2,24.9c-3.8,4.6-8.5,8.1-13,11.9
		c-13.5,11.2-29.5,19.2-46.4,23.6c-6.7,2-13.9,2.2-20.4,5.1l-1,0.4h-19.4c-0.6-0.1-1.9-0.4-2.5-0.6c-6-3.2-13-3-19.3-5.1
		c-7.6-2.5-15.5-4.4-22.5-8.5c-17.5-8.1-32.3-21-44.3-35.8C16.8,185.9,8.6,170,4.9,152.8c-1.6-6.3-1.8-12.8-3.3-19.1
		c-0.2-1-0.7-1.9-1.6-2.5v-10.5c0.1-0.5,0.3-1.3,0.4-1.8c1.4-3.1,2.2-6.5,2.5-9.9c2-18,8.7-35.4,18.4-50.7
		c7.5-12.7,18.3-23.2,29.7-32.3c13.4-9.3,28.2-17,44-21.1c6-1.7,12.4-1.5,18.1-4.4C114.3,0.4,115.4,0.2,116.6,0 M69.5,52.3
		c0.1,42.7-0.1,85.4,0.1,128c7.9,0.2,15.9,0.1,23.8,0.1c1.1-1.6,1.9-3.3,2.7-5.1c5,2.6,9.8,5.8,15.4,6.9c7.9,0.9,16.1,1.3,24,0.2
		c21.1-2.9,38.7-22.3,39-43.7c0.8-9.7-0.2-19.8-4.9-28.4C162.4,95.5,146.3,86,130,85.2c-4.9,0-9.9-0.1-14.8,0.2
		c-7,0.5-13.1,4.2-19.1,7.5c-0.2-12.6-0.4-25.3-0.3-37.9c0.4-2.3-2.1-3.5-4-3.7c-4.9-0.4-9.9,0-14.9-0.2
		C74.5,51.2,71.6,50.4,69.5,52.3 M67.7,66c0,37.2,0.2,74.4-0.1,111.6c0.1,1,0.6,1.9,1,2.8c1.1-5.4,0.7-10.9,0.7-16.4c0-32,0-64,0-96
		c0-5.1,0.4-10.3-0.6-15.4C66.9,56.8,67.8,61.5,67.7,66 M188.4,152.5c-4.3,0.8-8.7,3-11.1,6.8c-3.5,5.7-2.5,13.6,1.9,18.6
		c5.9,5.8,16.3,6.1,22.9,1.2c5.8-3.8,6.2-12.2,4.1-18.2C203.4,154,195.2,151.6,188.4,152.5 M69.7,181.5c1.4,0.6,2.8,1.1,4.3,0.9
		c6-0.3,11.9,0,17.9-0.2l0-1.1C84.5,180.8,77.1,180.7,69.7,181.5z"/>
	<path class="st0" d="M120.4,110.5c5.8-1.4,12.2-0.2,17.3,2.9c12.9,7.9,14.6,28.6,3.3,38.6c-9.3,9.1-25.8,7.7-34.3-1.8
		c-3.9-5.2-5.3-11.9-5.1-18.2C102.4,121.8,109.9,111.8,120.4,110.5z"/>
</g>
<g id="_x23_631e8fff">
	<path class="st1" d="M33.2,40.2c20.6-22.4,49.6-37.1,80-39.6c-5.6,3-12.1,2.7-18.1,4.4c-15.9,4.1-30.6,11.8-44,21.1
		c-11.5,9.1-22.2,19.6-29.7,32.3C11.6,73.7,4.9,91,2.9,109.1c-0.3,3.4-1.1,6.8-2.5,9.9C1.4,89.9,13.5,61.5,33.2,40.2z"/>
	<path class="st1" d="M135.9,0.5c15.9,0.9,31.6,5.6,45.8,12.8c26.1,12.9,47.2,35.5,58.7,62.2c4.5,10.1,7.1,20.8,9.1,31.6
		c-0.2,0.7-0.7,2.2-1,2.9c-1.4-5.5-2-11.2-3.7-16.7c-5.8-20.9-16.8-40.6-32.4-55.8c-8.4-8.9-19.1-15.2-29.4-21.6
		c-12.2-6.5-25.4-11.1-39.1-13C141.1,2.7,138.4,1.8,135.9,0.5z"/>
	<path class="st1" d="M69.5,52.3c2.1-1.9,5-1.1,7.5-1.2c4.9,0.3,9.9-0.2,14.9,0.2c1.9,0.2,4.3,1.4,4,3.7
		c-0.1,12.6,0.1,25.3,0.3,37.9c6-3.2,12.1-7,19.1-7.5c4.9-0.3,9.9-0.2,14.8-0.2c16.3,0.8,32.4,10.2,39.6,25.1
		c4.7,8.6,5.7,18.8,4.9,28.4c-0.3,21.4-17.9,40.8-39,43.7c-7.9,1.1-16.1,0.7-24-0.2c-5.6-1.1-10.5-4.2-15.4-6.9
		c-0.8,1.8-1.6,3.5-2.7,5.1c-0.1-3.3-0.2-6.5-0.1-9.8c5.3,4.5,11.2,8.5,18.2,9.9c12,2.5,25.1,1.7,36.2-3.8
		c10.1-4.7,18.3-13.3,22.2-23.8c5.4-14.1,4.7-30.8-3-44c-7-12.3-20.2-20.2-34-22.1c-8.6-1.1-17.7-0.9-25.9,2.2
		c-4.7,1.8-8.7,4.9-12.6,8c0-14.8,0.1-29.7,0-44.5C86.2,52.4,77.8,52.7,69.5,52.3z"/>
	<path class="st1" d="M120.4,108.7c9.7-1.5,20.8,2,25.9,10.9c6.1,10.6,5.1,26-4.5,34.3c-7.9,6.7-19.8,7.6-28.9,3.1
		c-8.2-3.9-13.1-13-12.8-22c-0.6-7,1.7-14.2,6.5-19.3C110.3,112,115.3,109.6,120.4,108.7 M120.4,110.5c-10.5,1.3-18,11.3-18.7,21.5
		c-0.2,6.4,1.2,13.1,5.1,18.2c8.5,9.5,25,10.9,34.3,1.8c11.2-10,9.5-30.7-3.3-38.6C132.6,110.3,126.2,109.1,120.4,110.5z"/>
	<path class="st1" d="M1.6,133.8c1.6,6.3,1.7,12.8,3.3,19.1c3.7,17.2,11.9,33,22.1,47.2c12,14.8,26.8,27.8,44.3,35.8
		c7,4.1,14.9,6,22.5,8.5c6.3,2.1,13.3,1.9,19.3,5.1c-30.6-2.6-59.7-17.5-80.3-40.2c-12.3-13.4-21.5-29.5-26.9-46.8
		c-2.6-8-3.9-16.3-5.4-24.6C1.1,136.6,1.5,135.2,1.6,133.8z"/>
	<path class="st1" d="M234.1,184.1c7.5-13.7,11.2-29,14.6-44.1c0.3,0.6,0.8,1.8,1,2.4c-1.6,6.6-2.5,13.3-4.7,19.7
		c-8.5,27.9-27.3,52.4-51.8,68.2c-17.1,11-36.9,17.9-57.2,19.4c6.5-2.9,13.7-3.1,20.4-5.1c16.9-4.4,33-12.4,46.4-23.6
		c4.5-3.8,9.3-7.3,13-11.9C222.4,201,229.3,193.2,234.1,184.1z"/>
</g>
<g id="_x23_72199bff">
	<path class="st2" d="M67.7,66c0.2-4.5-0.8-9.2,1-13.4c0.9,5.1,0.5,10.3,0.6,15.4c0,32,0,64,0,96c0,5.5,0.4,11-0.7,16.4
		c-0.4-0.9-1-1.8-1-2.8C67.9,140.4,67.7,103.2,67.7,66z"/>
</g>
<g id="_x23_fefefeff">
	<path class="st3" d="M69.5,52.3c8.3,0.3,16.7,0,25,0.2c0.1,14.8,0.1,29.7,0,44.5c3.9-3.1,7.9-6.2,12.6-8c8.2-3.1,17.2-3.3,25.9-2.2
		c13.8,1.9,27.1,9.8,34,22.1c7.6,13.2,8.4,29.9,3,44c-4,10.4-12.2,19.1-22.2,23.8c-11.1,5.5-24.2,6.2-36.2,3.8
		c-7-1.4-12.9-5.4-18.2-9.9c0,3.3,0,6.5,0.1,9.8c-8,0-15.9,0.1-23.8-0.1C69.4,137.7,69.6,95,69.5,52.3 M120.4,108.7
		c-5.1,0.9-10.1,3.2-13.8,7c-4.8,5.2-7,12.3-6.5,19.3c-0.3,8.9,4.6,18.1,12.8,22c9.1,4.4,21.1,3.6,28.9-3.1
		c9.5-8.3,10.6-23.7,4.5-34.3C141.3,110.8,130.1,107.2,120.4,108.7z"/>
</g>
<g id="_x23_b95aedff">
	<path class="st4" d="M249.5,107.1l0.5,0.5v4.4c-0.4-0.5-1.1-1.5-1.5-2.1C248.8,109.3,249.3,107.8,249.5,107.1z"/>
</g>
<g id="_x23_ca6af2ff">
	<path class="st5" d="M0,131.2c0.8,0.7,1.3,1.5,1.6,2.5c-0.1,1.4-0.5,2.8-1.1,4.1L0,137.4V131.2z"/>
</g>
<g id="_x23_9d1a83ff">
	<path class="st6" d="M188.4,152.5c6.8-0.9,15,1.6,17.8,8.4c2.2,6,1.8,14.4-4.1,18.2c-6.6,4.9-17,4.6-22.9-1.2
		c-4.4-4.9-5.4-12.8-1.9-18.6C179.6,155.5,184.1,153.3,188.4,152.5 M187.3,154.4c-4.1,0.8-7.9,3.4-9.6,7.3c-2,4.5-1.4,10.1,1.7,13.9
		c5.2,6.3,15.6,6.9,21.9,1.8c6.1-4.9,5.9-15.6-0.4-20.3C197.2,153.9,191.9,153.5,187.3,154.4z"/>
</g>
<g id="_x23_ec7263ff">
	<path class="st7" d="M187.3,154.4c4.6-0.9,9.9-0.4,13.6,2.7c6.4,4.6,6.5,15.3,0.4,20.3c-6.2,5.2-16.6,4.5-21.9-1.8
		c-3.1-3.8-3.7-9.4-1.7-13.9C179.5,157.8,183.2,155.1,187.3,154.4 M186.4,156.4c-6.1,1.6-9.6,8.8-7.4,14.6c1.8,6.6,9.8,8.8,15.9,7.6
		c6.9-1,11.3-9.5,8.2-15.7C200.6,156.5,192.4,154.2,186.4,156.4z"/>
</g>
<g id="_x23_fe8405ff">
	<path class="st8" d="M186.4,156.4c6.1-2.2,14.3,0.2,16.7,6.6c3.1,6.2-1.3,14.7-8.2,15.7c-6,1.2-14.1-1-15.9-7.6
		C176.8,165.2,180.2,158,186.4,156.4z"/>
</g>
<g id="_x23_7217a4ff">
	<path class="st9" d="M69.7,181.5c7.4-0.8,14.8-0.7,22.2-0.4l0,1.1c-6,0.2-11.9,0-17.9,0.2C72.5,182.6,71.1,182.1,69.7,181.5z"/>
</g>
</svg>
